X:1
T:Title
%%score { 1 | 2 }
L:1/8
M:3/4
K:Db
V:1 treble nm="Grand Piano"
V:2 bass 
V:1
 z2 z2[Q:1/4=100] [FA]>[Fd] | [Gd]2 [Gc]2 [CEG]>[DFA] | [DGB]2 [DFA]2 [CE]>[DF] | %3
 [EG]2 [CA]2 [A,CE]2 | [A,DF]4 [A,FA]>[Fd] | [Gd]2 [Gc]2 [CEG]>[DFA] | [GB]2 [FA]2 [Fd]>[Fd] | %7
 [Ec]2 [EB]2 [E=A]2 | [EA]4 [DA]>[Fd] | [Gd]2 [Gc]2 [CEG]>[DFA] | [DGB]2 [DFA]2 [DFA]>[EF=A] | %11
 [=DFB]2 [DFB]2 [B,DA]2 | [B,EG]4 [A,EG]>[A,EG] | [A,DF]2 [A,FA]2 [Fd]>[Fd] | d2 c2 B>B | %15
 A2 B2 [EGc]2 |[M:2/4] [DFd]4 |[M:1/4] A>B |[M:3/4] c2 c2 c>d | [Ge]2 [Ge]2 [EG]>[FA] | %20
 [GB]2 [CA]2 [CE]2 |[M:2/4] [DF]4 |[M:1/4] [FA]>[Fd] |[M:3/4] [Gd]2 [Gc]2 [CEG]>[DFA] | %24
 [GB]2 [DFA]2 [Fd]>[Fd] | [Ac]2 [=Gd]2 [_Ge]2 |[M:2/4] [Fd]4 |] %27
V:2
 z2 z2 [D,A,]>[D,A,] | [E,A,]2 [A,,A,]2 A,,>A,, | D,2 D,2 A,>A, | A,2 A,2 A,,2 | D,4 D,>[D,A,] | %5
 [E,A,]2 [A,,A,]2 A,,>A,, | [D,D]2 [D,D]2 [D,A,]>[D,A,] | [A,,A,]2 [B,,=G,]2 [_C,_G,]2 | %8
 [C,G,]4 [D,F,]>[D,A,] | [E,A,]2 [A,,A,]2 A,,>A,, | D,2 D,2 D,>C, | B,,2 B,,2 B,,2 | E,4 C,>C, | %13
 D,2 D,2 [B,,B,]>[B,,B,] | [F,B,]2 [F,A,E]2 [G,B,D]>[G,B,D] | [A,C]2 [A,D=G]2[K:bass] A,,2 | %16
[M:2/4] D,4 |[M:1/4][K:treble] [A,CG]>[A,CG] |[M:3/4] [A,EG]2 [A,EG]2 [A,E]>[A,F] | %19
 [A,,A,]2 [A,,A,]2 [A,,A,]>[A,,A,] | [A,,A,]2 [A,,A,]2 [A,,A,]2 |[M:2/4] [D,A,]4 | %22
[M:1/4] [D,A,]>[D,A,] |[M:3/4] [E,A,]2 [A,,A,]2 A,,>A,, | D2 D,2 [D,A,]>[D,A,] | %25
 [A,,A,]2 [A,,B,]2 [A,,C]2 |[M:2/4] [D,D]4 |] %27

